!!!OTL: 174e. Das Maedchen und die Hasel.
!!!ODT: 1857
!!!ARE: Europa, Mitteleuropa, Deutschland, Altmark
!!!SCT: E0174A
!!!TXL: @@DE
!!!YEM: Copyright 1995, estate of Helmut Schaffrath.
**kern	**text
*ICvox	*
*M3/4	*
*k[f#]	*
*G:	*
!LO:TX:a:t=Etwas bewegt.	!
!LO:TX:a:t=Mel. 1857 aus der Altmark.	!
{8d	Es
=1	=1
8g	wollt
8g	ein
4a	Jung-
4g	-fer_ʒu
=2	=2
8e	Tan-
8e	-ʒe
4d	gehn,
8r}	.
{8d	die
=3	=3
8g	mach-
8a	-te
4b/	ſich
4b/	ſo
=4	=4
8ccL	ſchö-
8bJ	.
4a	-ne,
8r}	.
{8b	was
=5	=5
8cc	fand
8cc	ſie
4cc	an
4ee	dem
=6	=6
8dd	We-
8cc	-ge
4b	ſtehn?
8r}	.
{8dd	ein'
=7	=7
8a	Ha-
8b/	-ſel
8ccL	die
8bJ	.
4a	war
=8	=8
(8eL	grü-
8aJ)	.
4a	-ne.
8r}	.
{8b	was
=9	=9
8cc	fand
8cc	ſie
4cc	an
4ee	dem
=10	=10
8dd	We-
8cc	-ge
4b	ſtehn?
8r}	.
{8dd	ein'
=11	=11
8a	Ha-
8b/	-ſel
8ccL	die
8bJ	.
4a	war
=12	=12
(8eL	grü-
8aJ)	.
4a	-ne.
8r}	.
==	==
!!!AGN: erzaehlendes Volks - Lied, Sage, Pflanzen - Maerchen, Moral - Lied
!!!ONB: ESAC (Essen Associative Code) Database: ERK1
!!!AMT: simple triple
!!!AIN: vox
!!!EED: Helmut Schaffrath
!!!EEV: 1.0
!!!GTL: Thiersage und Pflanzenmaerchen
!!!URL-scan: https://rosdok.uni-rostock.de/mcrviewer/recordIdentifier/rosdok_ppn745146120/iview2/phys_0603.iview2?x=-128.7727644188933&y=796.0709098465741&scale=0.5870222003877484&rotation=0&layout=singlePageLayout
!!!ENC: Anna Maria Matuszewska
!!!EEV: 2024/04/12
*-	*-
